X:1
T:Title
L:1/8
M:none
I:linebreak $
K:D
V:1 treble nm="Voice"
V:1
"D" D2 FA"G" BABA |"D" FDFD"A" EF E2 |"D" D2 FA"G" BABA |1"D" FD"A"EF"D" D3 F :|2 %4
"D" FD"A"EF"D" D3 D |:"D" DDFA d3 d |"A" cdcB"G" G3 d |1"A" cdcB"G" G3 d |"A" cdcB"D" F2 FE :|2 %9
"A" cdcB AABc |"D" dBAF D3 F |] %11
